web/packages/design/src/ResourceIcon/assets/deel-light.svg

<svg width="72" height="72" viewBox="0 0 72 72" fill="none" xmlns="http://www.w3.org/2000/svg">
<g clip-path="url(#clip0_15936_7187)">
<path fill-rule="evenodd" clip-rule="evenodd" d="M24.9263 16.771C11.8894 16.771 0 25.0477 0 43.6731C0 63.3552 12.3482 70.5752 24.9305 70.5752C36.733 70.5752 41.8464 63.0832 41.8464 63.0832V69.2599H55.1999C54.8847 65.6252 54.7291 61.5489 54.7291 57.0317V2.00049H41.8422V24.3309C41.8422 24.3309 36.8248 16.771 24.9263 16.771ZM43.2458 43.6731C43.2458 53.7402 37.345 60.687 28.2178 60.687C19.3345 60.687 13.408 54.4179 13.408 43.6731C13.408 32.9283 19.095 26.6591 28.2178 26.6591C37.3408 26.6591 43.2458 33.2536 43.2458 43.6731ZM72.0001 57.1802H59.5859V69.218H72.0001V57.1802Z" fill="black"/>
</g>
<defs>
<clipPath id="clip0_15936_7187">
<rect width="72" height="72" fill="white" transform="translate(0 0.000488281)"/>
</clipPath>
</defs>
</svg>

<svg xmlns="http://www.w3.org/2000/svg" width="72" height="72" fill="none" viewBox="0 0 72 72"><g clip-path="url(#clip0_15936_7187)"><path fill="#000" fill-rule="evenodd" d="M24.926 16.771C11.89 16.771 0 25.048 0 43.673c0 19.682 12.348 26.902 24.93 26.902 11.803 0 16.916-7.492 16.916-7.492v6.177H55.2q-.471-5.453-.47-12.228V2H41.841v22.33s-5.017-7.559-16.916-7.559m18.32 26.902c0 10.067-5.901 17.014-15.028 17.014-8.884 0-14.81-6.27-14.81-17.014s5.687-17.014 14.81-17.014 15.028 6.595 15.028 17.014M72 57.18H59.586v12.038H72z" clip-rule="evenodd"/></g><defs><clipPath id="clip0_15936_7187"><path fill="#fff" d="M0 0h72v72H0z"/></clipPath></defs></svg>
